X:1
T:Chyld Owlet
M:4/4
L:1/4
K:G
 B/2B/2| A F E D| E F B z/2 B/2| A F E D| E2 z z/2 B/2| A F E D| E F A z/2 B/2|\
 D B A B| B2 z||
